X:16620
T:The Custom Gap
M:4/4
L:1/8
R:Slow Reel
N:This and the following tune were no.1 and 3 in a set.
N:no.2 was the well known Paddy Fahy's in DDor
K:DDor
D2DE FEFG|AcGc AddF|ADDE FADA|cAGE (3FED DC|\
D2DE FEFG|AcGc Adde|fded ddAd|cAGE (3FED DC::\
~d3 A ~c3 A|~d3 A cAGA|~d3 A ~c3 A|GEcE ED D2|dedA ~c3 A|\
~d3 A cAGA|fded ~d2Ad|1cAGE (3FED DA:|2cAGE (3FED DC||
